en/template-builder/_images/index/troubleshooting.svg

<svg width="121" height="121" viewBox="0 0 121 121" fill="none" xmlns="http://www.w3.org/2000/svg">
<path fill-rule="evenodd" clip-rule="evenodd" d="M90.0058 98.0409L80.0058 84.0409L80.0165 84.0276H32.0005C29.7978 84.0276 28.0059 82.2409 28.0059 80.0409V18.0276C28.0059 15.8276 29.7978 14.0409 32.0005 14.0409H112.011C114.214 14.0409 116.006 15.8276 116.006 18.0276V80.0409C116.006 82.2409 114.214 84.0276 112.011 84.0276H105.976L96.0058 98.0409C94.1124 99.9343 91.9258 99.9609 90.0058 98.0409V98.0409Z" fill="url(#paint0_linear_598_1621)"/>
<path fill-rule="evenodd" clip-rule="evenodd" d="M36.0058 112.041L26.0058 98.0409L8.00048 98.0276C5.79782 98.0276 4.00586 96.2409 4.00586 94.0409V48.0276C4.00586 45.8276 5.79782 44.0409 8.00048 44.0409H72.0111C74.2138 44.0409 76.0058 45.8276 76.0058 48.0276V94.0409C76.0058 96.2409 74.2138 98.0276 72.0111 98.0276L52.0058 98.0409L42.0058 112.041C40.1125 113.934 37.9258 113.961 36.0058 112.041V112.041Z" fill="url(#paint1_linear_598_1621)"/>
<path d="M48.0039 34.041H97.0119" stroke="#0055D9" stroke-width="2" stroke-miterlimit="79.8403" stroke-linecap="round" stroke-linejoin="round"/>
<path d="M82.0039 49.041H97.0119" stroke="#0055D9" stroke-width="2" stroke-miterlimit="79.8403" stroke-linecap="round" stroke-linejoin="round"/>
<path d="M82.0039 64.041H97.0119" stroke="#0055D9" stroke-width="2" stroke-miterlimit="79.8403" stroke-linecap="round" stroke-linejoin="round"/>
<path d="M30.5088 65.0761C30.5088 60.245 34.4292 56.3291 39.2562 56.3291C44.0832 56.3291 48.0035 60.245 48.0035 65.0761C48.0035 67.5136 46.9983 69.7311 45.3806 71.3151L40.0258 75.935C39.077 76.7622 39.2935 77.5542 39.253 78.3814L39.2548 80.6253" stroke="#0055D9" stroke-width="2" stroke-miterlimit="79.8403" stroke-linecap="round" stroke-linejoin="round"/>
<path d="M39.2559 86.441V89.068" stroke="#0055D9" stroke-width="2" stroke-miterlimit="79.8403" stroke-linecap="round" stroke-linejoin="round"/>
<defs>
<linearGradient id="paint0_linear_598_1621" x1="94.8651" y1="106.041" x2="94.8651" y2="-7.45899" gradientUnits="userSpaceOnUse">
<stop stop-color="#A1BFFF" stop-opacity="0.17"/>
<stop offset="1" stop-color="#679BFF" stop-opacity="0.92"/>
</linearGradient>
<linearGradient id="paint1_linear_598_1621" x1="51.5035" y1="17.541" x2="51.5035" y2="287.541" gradientUnits="userSpaceOnUse">
<stop offset="0.02" stop-color="#0064FF"/>
<stop offset="0.06" stop-color="#005FFF" stop-opacity="0.86"/>
<stop offset="0.11" stop-color="#005BFF" stop-opacity="0.72"/>
<stop offset="0.17" stop-color="#0057FF" stop-opacity="0.59"/>
<stop offset="0.23" stop-color="#0053FF" stop-opacity="0.48"/>
<stop offset="0.3" stop-color="#0051FF" stop-opacity="0.4"/>
<stop offset="0.38" stop-color="#004FFF" stop-opacity="0.33"/>
<stop offset="0.48" stop-color="#004DFF" stop-opacity="0.28"/>
<stop offset="0.61" stop-color="#004CFF" stop-opacity="0.26"/>
<stop offset="1" stop-color="#004CFF" stop-opacity="0.25"/>
</linearGradient>
</defs>
</svg>

<svg xmlns="http://www.w3.org/2000/svg" width="121" height="121" fill="none"><path fill="url(#a)" fill-rule="evenodd" d="m90.006 98.04-10-14 .01-.012H32a3.994 3.994 0 0 1-3.994-3.987V18.028c0-2.2 1.792-3.987 3.995-3.987h80.01a3.994 3.994 0 0 1 3.995 3.987V80.04c0 2.2-1.792 3.987-3.995 3.987h-6.035l-9.97 14.013c-1.894 1.893-4.08 1.92-6 0Z" clip-rule="evenodd"/><path fill="url(#b)" fill-rule="evenodd" d="m36.006 112.041-10-14L8 98.028a3.994 3.994 0 0 1-3.994-3.987V48.028c0-2.2 1.792-3.987 3.994-3.987h64.011a3.994 3.994 0 0 1 3.995 3.987V94.04c0 2.2-1.792 3.987-3.995 3.987l-20.005.013-10 14c-1.894 1.893-4.08 1.92-6 0Z" clip-rule="evenodd"/><path stroke="#0055D9" stroke-linecap="round" stroke-linejoin="round" stroke-miterlimit="79.84" stroke-width="2" d="M48.004 34.041h49.008M82.004 49.041h15.008M82.004 64.041h15.008M30.509 65.076c0-4.831 3.92-8.747 8.747-8.747s8.748 3.916 8.748 8.747a8.719 8.719 0 0 1-2.623 6.24l-5.355 4.619c-.949.827-.733 1.62-.773 2.446l.002 2.244M39.256 86.441v2.627"/><defs><linearGradient id="a" x1="94.865" x2="94.865" y1="106.041" y2="-7.459" gradientUnits="userSpaceOnUse"><stop stop-color="#A1BFFF" stop-opacity=".17"/><stop offset="1" stop-color="#679BFF" stop-opacity=".92"/></linearGradient><linearGradient id="b" x1="51.504" x2="51.504" y1="17.541" y2="287.541" gradientUnits="userSpaceOnUse"><stop offset=".02" stop-color="#0064FF"/><stop offset=".06" stop-color="#005FFF" stop-opacity=".86"/><stop offset=".11" stop-color="#005BFF" stop-opacity=".72"/><stop offset=".17" stop-color="#0057FF" stop-opacity=".59"/><stop offset=".23" stop-color="#0053FF" stop-opacity=".48"/><stop offset=".3" stop-color="#0051FF" stop-opacity=".4"/><stop offset=".38" stop-color="#004FFF" stop-opacity=".33"/><stop offset=".48" stop-color="#004DFF" stop-opacity=".28"/><stop offset=".61" stop-color="#004CFF" stop-opacity=".26"/><stop offset="1" stop-color="#004CFF" stop-opacity=".25"/></linearGradient></defs></svg>
